images/50325690.svg

<?xml version="1.0" encoding="UTF-8"?>
<svg xmlns="http://www.w3.org/2000/svg" xmlns:xlink="http://www.w3.org/1999/xlink" width="300pt" height="300pt" viewBox="0 0 300 300" version="1.1">
<defs>
<g>
<symbol overflow="visible" id="glyph0-0">
<path style="stroke:none;" d="M 0.453125 1.59375 L 0.453125 -6.34375 L 4.953125 -6.34375 L 4.953125 1.59375 Z M 0.953125 1.09375 L 4.453125 1.09375 L 4.453125 -5.84375 L 0.953125 -5.84375 Z M 0.953125 1.09375 "/>
</symbol>
<symbol overflow="visible" id="glyph0-1">
<path style="stroke:none;" d="M 0.890625 -6.5625 L 4.65625 -6.5625 L 4.65625 -5.8125 L 1.765625 -5.8125 L 1.765625 -3.875 L 4.375 -3.875 L 4.375 -3.140625 L 1.765625 -3.140625 L 1.765625 0 L 0.890625 0 Z M 0.890625 -6.5625 "/>
</symbol>
<symbol overflow="visible" id="glyph0-2">
<path style="stroke:none;" d="M 0.890625 -6.5625 L 2.078125 -6.5625 L 4.984375 -1.078125 L 4.984375 -6.5625 L 5.84375 -6.5625 L 5.84375 0 L 4.65625 0 L 1.75 -5.484375 L 1.75 0 L 0.890625 0 Z M 0.890625 -6.5625 "/>
</symbol>
<symbol overflow="visible" id="glyph0-3">
<path style="stroke:none;" d="M 0.890625 -6.5625 L 1.765625 -6.5625 L 1.765625 -3.875 L 5 -3.875 L 5 -6.5625 L 5.890625 -6.5625 L 5.890625 0 L 5 0 L 5 -3.125 L 1.765625 -3.125 L 1.765625 0 L 0.890625 0 Z M 0.890625 -6.5625 "/>
</symbol>
<symbol overflow="visible" id="glyph0-4">
<path style="stroke:none;" d="M 3.546875 -5.953125 C 2.898438 -5.953125 2.382812 -5.710938 2 -5.234375 C 1.625 -4.753906 1.4375 -4.101562 1.4375 -3.28125 C 1.4375 -2.445312 1.625 -1.789062 2 -1.3125 C 2.382812 -0.832031 2.898438 -0.59375 3.546875 -0.59375 C 4.191406 -0.59375 4.703125 -0.832031 5.078125 -1.3125 C 5.453125 -1.789062 5.640625 -2.445312 5.640625 -3.28125 C 5.640625 -4.101562 5.453125 -4.753906 5.078125 -5.234375 C 4.703125 -5.710938 4.191406 -5.953125 3.546875 -5.953125 Z M 3.546875 -6.6875 C 4.460938 -6.6875 5.195312 -6.375 5.75 -5.75 C 6.300781 -5.132812 6.578125 -4.3125 6.578125 -3.28125 C 6.578125 -2.238281 6.300781 -1.410156 5.75 -0.796875 C 5.195312 -0.179688 4.460938 0.125 3.546875 0.125 C 2.617188 0.125 1.878906 -0.179688 1.328125 -0.796875 C 0.773438 -1.410156 0.5 -2.238281 0.5 -3.28125 C 0.5 -4.3125 0.773438 -5.132812 1.328125 -5.75 C 1.878906 -6.375 2.617188 -6.6875 3.546875 -6.6875 Z M 3.546875 -6.6875 "/>
</symbol>
</g>
</defs>
<g id="surface21701">
<rect x="0" y="0" width="300" height="300" style="fill:rgb(100%,100%,100%);fill-opacity:1;stroke:none;"/>
<path style="fill:none;stroke-width:1.2;stroke-linecap:butt;stroke-linejoin:miter;stroke:rgb(20%,80%,80%);stroke-opacity:1;stroke-miterlimit:10;" d="M 43.503906 172.875 L 46.980469 164.476562 "/>
<path style="fill:none;stroke-width:1.2;stroke-linecap:butt;stroke-linejoin:miter;stroke:rgb(0%,0%,0%);stroke-opacity:1;stroke-miterlimit:10;" d="M 46.980469 164.476562 L 50.453125 156.074219 "/>
<path style=" stroke:none;fill-rule:nonzero;fill:rgb(100%,100%,100%);fill-opacity:1;" d="M 37.503906 167.375 L 43.503906 167.375 L 43.503906 178.375 L 37.503906 178.375 Z M 37.503906 167.375 "/>
<g style="fill:rgb(20%,80%,80%);fill-opacity:1;">
  <use xlink:href="#glyph0-1" x="37.503906" y="176.038086"/>
</g>
<path style="fill:none;stroke-width:1.2;stroke-linecap:butt;stroke-linejoin:miter;stroke:rgb(0%,0%,0%);stroke-opacity:1;stroke-miterlimit:10;" d="M 50.453125 156.074219 L 39.378906 141.65625 "/>
<path style="fill:none;stroke-width:1.2;stroke-linecap:butt;stroke-linejoin:miter;stroke:rgb(0%,0%,0%);stroke-opacity:1;stroke-miterlimit:10;" d="M 52.738281 152.027344 L 43.878906 140.492188 "/>
<path style="fill:none;stroke-width:1.2;stroke-linecap:butt;stroke-linejoin:miter;stroke:rgb(0%,0%,0%);stroke-opacity:1;stroke-miterlimit:10;" d="M 68.476562 153.691406 L 50.453125 156.074219 "/>
<path style="fill:none;stroke-width:1.2;stroke-linecap:butt;stroke-linejoin:miter;stroke:rgb(0%,0%,0%);stroke-opacity:1;stroke-miterlimit:10;" d="M 39.378906 141.65625 L 46.324219 124.855469 "/>
<path style="fill:none;stroke-width:1.2;stroke-linecap:butt;stroke-linejoin:miter;stroke:rgb(0%,0%,0%);stroke-opacity:1;stroke-miterlimit:10;" d="M 46.324219 124.855469 L 40.789062 117.644531 "/>
<path style="fill:none;stroke-width:1.2;stroke-linecap:butt;stroke-linejoin:miter;stroke:rgb(20%,80%,80%);stroke-opacity:1;stroke-miterlimit:10;" d="M 40.789062 117.644531 L 35.25 110.4375 "/>
<path style="fill:none;stroke-width:1.2;stroke-linecap:butt;stroke-linejoin:miter;stroke:rgb(0%,0%,0%);stroke-opacity:1;stroke-miterlimit:10;" d="M 46.324219 124.855469 L 64.351562 122.472656 "/>
<path style="fill:none;stroke-width:1.2;stroke-linecap:butt;stroke-linejoin:miter;stroke:rgb(0%,0%,0%);stroke-opacity:1;stroke-miterlimit:10;" d="M 48.6875 128.859375 L 63.109375 126.953125 "/>
<path style=" stroke:none;fill-rule:nonzero;fill:rgb(100%,100%,100%);fill-opacity:1;" d="M 29.25 104.9375 L 35.25 104.9375 L 35.25 115.9375 L 29.25 115.9375 Z M 29.25 104.9375 "/>
<g style="fill:rgb(20%,80%,80%);fill-opacity:1;">
  <use xlink:href="#glyph0-1" x="29.25" y="113.600586"/>
</g>
<path style="fill:none;stroke-width:1.2;stroke-linecap:butt;stroke-linejoin:miter;stroke:rgb(0%,0%,0%);stroke-opacity:1;stroke-miterlimit:10;" d="M 64.351562 122.472656 L 75.425781 136.890625 "/>
<path style="fill:none;stroke-width:1.2;stroke-linecap:butt;stroke-linejoin:miter;stroke:rgb(0%,0%,0%);stroke-opacity:1;stroke-miterlimit:10;" d="M 75.425781 136.890625 L 68.476562 153.691406 "/>
<path style="fill:none;stroke-width:1.2;stroke-linecap:butt;stroke-linejoin:miter;stroke:rgb(0%,0%,0%);stroke-opacity:1;stroke-miterlimit:10;" d="M 70.777344 136.9375 L 65.21875 150.375 "/>
<path style="fill:none;stroke-width:1.2;stroke-linecap:butt;stroke-linejoin:miter;stroke:rgb(0%,0%,0%);stroke-opacity:1;stroke-miterlimit:10;" d="M 68.476562 153.691406 L 74.015625 160.902344 "/>
<path style="fill:none;stroke-width:1.2;stroke-linecap:butt;stroke-linejoin:miter;stroke:rgb(0%,0%,100%);stroke-opacity:1;stroke-miterlimit:10;" d="M 74.015625 160.902344 L 79.554688 168.109375 "/>
<path style="fill:none;stroke-width:1.2;stroke-linecap:butt;stroke-linejoin:miter;stroke:rgb(0%,0%,100%);stroke-opacity:1;stroke-miterlimit:10;" d="M 79.554688 168.109375 L 88.566406 166.917969 "/>
<path style="fill:none;stroke-width:1.2;stroke-linecap:butt;stroke-linejoin:miter;stroke:rgb(0%,0%,0%);stroke-opacity:1;stroke-miterlimit:10;" d="M 88.566406 166.917969 L 97.578125 165.726562 "/>
<path style=" stroke:none;fill-rule:nonzero;fill:rgb(100%,100%,100%);fill-opacity:1;" d="M 72.554688 162.609375 L 86.554688 162.609375 L 86.554688 173.609375 L 72.554688 173.609375 Z M 72.554688 162.609375 "/>
<g style="fill:rgb(0%,0%,100%);fill-opacity:1;">
  <use xlink:href="#glyph0-2" x="72.554688" y="171.272461"/>
  <use xlink:href="#glyph0-3" x="79.532227" y="171.272461"/>
</g>
<path style="fill:none;stroke-width:1.2;stroke-linecap:butt;stroke-linejoin:miter;stroke:rgb(0%,0%,0%);stroke-opacity:1;stroke-miterlimit:10;" d="M 97.578125 165.726562 L 103.117188 172.9375 "/>
<path style="fill:none;stroke-width:1.2;stroke-linecap:butt;stroke-linejoin:miter;stroke:rgb(0%,0%,100%);stroke-opacity:1;stroke-miterlimit:10;" d="M 103.117188 172.9375 L 108.65625 180.144531 "/>
<path style="fill:none;stroke-width:1.2;stroke-linecap:butt;stroke-linejoin:miter;stroke:rgb(0%,0%,0%);stroke-opacity:1;stroke-miterlimit:10;" d="M 102.078125 164.5625 L 106.507812 170.332031 "/>
<path style="fill:none;stroke-width:1.2;stroke-linecap:butt;stroke-linejoin:miter;stroke:rgb(0%,0%,100%);stroke-opacity:1;stroke-miterlimit:10;" d="M 106.507812 170.332031 L 110.941406 176.097656 "/>
<path style="fill:none;stroke-width:1.2;stroke-linecap:butt;stroke-linejoin:miter;stroke:rgb(0%,0%,0%);stroke-opacity:1;stroke-miterlimit:10;" d="M 104.527344 148.925781 L 97.578125 165.726562 "/>
<path style="fill:none;stroke-width:1.2;stroke-linecap:butt;stroke-linejoin:miter;stroke:rgb(0%,0%,100%);stroke-opacity:1;stroke-miterlimit:10;" d="M 108.65625 180.144531 L 117.667969 178.953125 "/>
<path style="fill:none;stroke-width:1.2;stroke-linecap:butt;stroke-linejoin:miter;stroke:rgb(0%,0%,0%);stroke-opacity:1;stroke-miterlimit:10;" d="M 117.667969 178.953125 L 126.679688 177.761719 "/>
<path style=" stroke:none;fill-rule:nonzero;fill:rgb(100%,100%,100%);fill-opacity:1;" d="M 105.65625 174.644531 L 112.65625 174.644531 L 112.65625 185.644531 L 105.65625 185.644531 Z M 105.65625 174.644531 "/>
<g style="fill:rgb(0%,0%,100%);fill-opacity:1;">
  <use xlink:href="#glyph0-2" x="105.65625" y="183.307617"/>
</g>
<path style="fill:none;stroke-width:1.2;stroke-linecap:butt;stroke-linejoin:miter;stroke:rgb(0%,0%,0%);stroke-opacity:1;stroke-miterlimit:10;" d="M 126.679688 177.761719 L 133.597656 183.664062 "/>
<path style="fill:none;stroke-width:1.2;stroke-linecap:butt;stroke-linejoin:miter;stroke:rgb(0%,0%,100%);stroke-opacity:1;stroke-miterlimit:10;" d="M 133.597656 183.664062 L 140.511719 189.5625 "/>
<path style="fill:none;stroke-width:1.2;stroke-linecap:butt;stroke-linejoin:miter;stroke:rgb(0%,0%,0%);stroke-opacity:1;stroke-miterlimit:10;" d="M 130.839844 175.6875 L 136.371094 180.410156 "/>
<path style="fill:none;stroke-width:1.2;stroke-linecap:butt;stroke-linejoin:miter;stroke:rgb(0%,0%,100%);stroke-opacity:1;stroke-miterlimit:10;" d="M 136.371094 180.410156 L 141.90625 185.128906 "/>
<path style="fill:none;stroke-width:1.2;stroke-linecap:butt;stroke-linejoin:miter;stroke:rgb(0%,0%,0%);stroke-opacity:1;stroke-miterlimit:10;" d="M 133.628906 160.960938 L 126.679688 177.761719 "/>
<path style="fill:none;stroke-width:1.2;stroke-linecap:butt;stroke-linejoin:miter;stroke:rgb(0%,0%,100%);stroke-opacity:1;stroke-miterlimit:10;" d="M 140.511719 189.5625 L 156.007812 180.054688 "/>
<path style=" stroke:none;fill-rule:nonzero;fill:rgb(100%,100%,100%);fill-opacity:1;" d="M 137.511719 184.0625 L 144.511719 184.0625 L 144.511719 195.0625 L 137.511719 195.0625 Z M 137.511719 184.0625 "/>
<g style="fill:rgb(0%,0%,100%);fill-opacity:1;">
  <use xlink:href="#glyph0-2" x="137.511719" y="192.725586"/>
</g>
<path style="fill:none;stroke-width:1.2;stroke-linecap:butt;stroke-linejoin:miter;stroke:rgb(0%,0%,100%);stroke-opacity:1;stroke-miterlimit:10;" d="M 156.007812 180.054688 L 153.882812 171.214844 "/>
<path style="fill:none;stroke-width:1.2;stroke-linecap:butt;stroke-linejoin:miter;stroke:rgb(0%,0%,0%);stroke-opacity:1;stroke-miterlimit:10;" d="M 153.882812 171.214844 L 151.753906 162.378906 "/>
<path style=" stroke:none;fill-rule:nonzero;fill:rgb(100%,100%,100%);fill-opacity:1;" d="M 149.007812 174.554688 L 163.007812 174.554688 L 163.007812 185.554688 L 149.007812 185.554688 Z M 149.007812 174.554688 "/>
<g style="fill:rgb(0%,0%,100%);fill-opacity:1;">
  <use xlink:href="#glyph0-2" x="149.007812" y="183.217773"/>
  <use xlink:href="#glyph0-3" x="155.985352" y="183.217773"/>
</g>
<path style="fill:none;stroke-width:1.2;stroke-linecap:butt;stroke-linejoin:miter;stroke:rgb(0%,0%,0%);stroke-opacity:1;stroke-miterlimit:10;" d="M 151.753906 162.378906 L 133.628906 160.960938 "/>
<path style="fill:none;stroke-width:1.2;stroke-linecap:butt;stroke-linejoin:miter;stroke:rgb(0%,0%,0%);stroke-opacity:1;stroke-miterlimit:10;" d="M 149.609375 166.5 L 135.109375 165.367188 "/>
<path style="fill:none;stroke-width:1.2;stroke-linecap:butt;stroke-linejoin:miter;stroke:rgb(0%,0%,0%);stroke-opacity:1;stroke-miterlimit:10;" d="M 151.753906 162.378906 L 163.554688 148.546875 "/>
<path style="fill:none;stroke-width:1.2;stroke-linecap:butt;stroke-linejoin:miter;stroke:rgb(0%,0%,0%);stroke-opacity:1;stroke-miterlimit:10;" d="M 133.628906 160.960938 L 128.089844 153.753906 "/>
<path style="fill:none;stroke-width:1.2;stroke-linecap:butt;stroke-linejoin:miter;stroke:rgb(0%,0%,100%);stroke-opacity:1;stroke-miterlimit:10;" d="M 128.089844 153.753906 L 122.550781 146.542969 "/>
<path style="fill:none;stroke-width:1.2;stroke-linecap:butt;stroke-linejoin:miter;stroke:rgb(0%,0%,100%);stroke-opacity:1;stroke-miterlimit:10;" d="M 122.550781 146.542969 L 113.539062 147.734375 "/>
<path style="fill:none;stroke-width:1.2;stroke-linecap:butt;stroke-linejoin:miter;stroke:rgb(0%,0%,0%);stroke-opacity:1;stroke-miterlimit:10;" d="M 113.539062 147.734375 L 104.527344 148.925781 "/>
<path style="fill:none;stroke-width:1.2;stroke-linecap:butt;stroke-linejoin:miter;stroke:rgb(0%,0%,100%);stroke-opacity:1;stroke-miterlimit:10;" d="M 121.3125 151.023438 L 114.101562 151.976562 "/>
<path style="fill:none;stroke-width:1.2;stroke-linecap:butt;stroke-linejoin:miter;stroke:rgb(0%,0%,0%);stroke-opacity:1;stroke-miterlimit:10;" d="M 114.101562 151.976562 L 106.890625 152.929688 "/>
<path style=" stroke:none;fill-rule:nonzero;fill:rgb(100%,100%,100%);fill-opacity:1;" d="M 119.550781 141.042969 L 126.550781 141.042969 L 126.550781 152.042969 L 119.550781 152.042969 Z M 119.550781 141.042969 "/>
<g style="fill:rgb(0%,0%,100%);fill-opacity:1;">
  <use xlink:href="#glyph0-2" x="119.550781" y="149.706055"/>
</g>
<path style="fill:none;stroke-width:1.2;stroke-linecap:butt;stroke-linejoin:miter;stroke:rgb(0%,0%,0%);stroke-opacity:1;stroke-miterlimit:10;" d="M 163.554688 148.546875 L 181.433594 151.851562 "/>
<path style="fill:none;stroke-width:1.2;stroke-linecap:butt;stroke-linejoin:miter;stroke:rgb(0%,0%,0%);stroke-opacity:1;stroke-miterlimit:10;" d="M 166.121094 144.667969 L 180.421875 147.3125 "/>
<path style="fill:none;stroke-width:1.2;stroke-linecap:butt;stroke-linejoin:miter;stroke:rgb(0%,0%,0%);stroke-opacity:1;stroke-miterlimit:10;" d="M 157.476562 131.410156 L 163.554688 148.546875 "/>
<path style="fill:none;stroke-width:1.2;stroke-linecap:butt;stroke-linejoin:miter;stroke:rgb(0%,0%,0%);stroke-opacity:1;stroke-miterlimit:10;" d="M 181.433594 151.851562 L 193.234375 138.019531 "/>
<path style="fill:none;stroke-width:1.2;stroke-linecap:butt;stroke-linejoin:miter;stroke:rgb(0%,0%,0%);stroke-opacity:1;stroke-miterlimit:10;" d="M 193.234375 138.019531 L 187.15625 120.882812 "/>
<path style="fill:none;stroke-width:1.2;stroke-linecap:butt;stroke-linejoin:miter;stroke:rgb(0%,0%,0%);stroke-opacity:1;stroke-miterlimit:10;" d="M 188.59375 137.734375 L 183.730469 124.027344 "/>
<path style="fill:none;stroke-width:1.2;stroke-linecap:butt;stroke-linejoin:miter;stroke:rgb(0%,0%,0%);stroke-opacity:1;stroke-miterlimit:10;" d="M 193.234375 138.019531 L 211.113281 141.320312 "/>
<path style="fill:none;stroke-width:1.2;stroke-linecap:butt;stroke-linejoin:miter;stroke:rgb(0%,0%,0%);stroke-opacity:1;stroke-miterlimit:10;" d="M 187.15625 120.882812 L 169.277344 117.578125 "/>
<path style="fill:none;stroke-width:1.2;stroke-linecap:butt;stroke-linejoin:miter;stroke:rgb(0%,0%,0%);stroke-opacity:1;stroke-miterlimit:10;" d="M 169.277344 117.578125 L 157.476562 131.410156 "/>
<path style="fill:none;stroke-width:1.2;stroke-linecap:butt;stroke-linejoin:miter;stroke:rgb(0%,0%,0%);stroke-opacity:1;stroke-miterlimit:10;" d="M 171.351562 121.738281 L 161.910156 132.804688 "/>
<path style="fill:none;stroke-width:1.2;stroke-linecap:butt;stroke-linejoin:miter;stroke:rgb(0%,0%,0%);stroke-opacity:1;stroke-miterlimit:10;" d="M 157.476562 131.410156 L 148.539062 129.757812 "/>
<path style="fill:none;stroke-width:1.2;stroke-linecap:butt;stroke-linejoin:miter;stroke:rgb(100%,0%,0%);stroke-opacity:1;stroke-miterlimit:10;" d="M 148.539062 129.757812 L 139.597656 128.105469 "/>
<path style="fill:none;stroke-width:1.2;stroke-linecap:butt;stroke-linejoin:miter;stroke:rgb(100%,0%,0%);stroke-opacity:1;stroke-miterlimit:10;" d="M 139.597656 128.105469 L 136.558594 119.539062 "/>
<path style="fill:none;stroke-width:1.2;stroke-linecap:butt;stroke-linejoin:miter;stroke:rgb(0%,0%,0%);stroke-opacity:1;stroke-miterlimit:10;" d="M 136.558594 119.539062 L 133.519531 110.972656 "/>
<path style=" stroke:none;fill-rule:nonzero;fill:rgb(100%,100%,100%);fill-opacity:1;" d="M 135.597656 122.605469 L 143.597656 122.605469 L 143.597656 133.605469 L 135.597656 133.605469 Z M 135.597656 122.605469 "/>
<g style="fill:rgb(100%,0%,0%);fill-opacity:1;">
  <use xlink:href="#glyph0-4" x="135.597656" y="131.268555"/>
</g>
<path style="fill:none;stroke-width:1.2;stroke-linecap:butt;stroke-linejoin:miter;stroke:rgb(0%,0%,0%);stroke-opacity:1;stroke-miterlimit:10;" d="M 211.113281 141.320312 L 228.992188 144.625 "/>
<path style="fill:none;stroke-width:1.2;stroke-linecap:butt;stroke-linejoin:miter;stroke:rgb(0%,0%,0%);stroke-opacity:1;stroke-miterlimit:10;" d="M 212.125 145.859375 L 226.425781 148.5 "/>
<path style="fill:none;stroke-width:1.2;stroke-linecap:butt;stroke-linejoin:miter;stroke:rgb(0%,0%,0%);stroke-opacity:1;stroke-miterlimit:10;" d="M 213.679688 137.445312 L 227.980469 140.085938 "/>
<path style="fill:none;stroke-width:1.2;stroke-linecap:butt;stroke-linejoin:miter;stroke:rgb(0%,0%,0%);stroke-opacity:1;stroke-miterlimit:10;" d="M 228.992188 144.625 L 246.871094 147.929688 "/>
<path style="fill:none;stroke-width:1.2;stroke-linecap:butt;stroke-linejoin:miter;stroke:rgb(0%,0%,0%);stroke-opacity:1;stroke-miterlimit:10;" d="M 246.871094 147.929688 L 255.8125 149.582031 "/>
<path style="fill:none;stroke-width:1.2;stroke-linecap:butt;stroke-linejoin:miter;stroke:rgb(100%,0%,0%);stroke-opacity:1;stroke-miterlimit:10;" d="M 255.8125 149.582031 L 264.75 151.230469 "/>
<path style="fill:none;stroke-width:1.2;stroke-linecap:butt;stroke-linejoin:miter;stroke:rgb(0%,0%,0%);stroke-opacity:1;stroke-miterlimit:10;" d="M 246.871094 147.929688 L 243.566406 165.808594 "/>
<path style="fill:none;stroke-width:1.2;stroke-linecap:butt;stroke-linejoin:miter;stroke:rgb(0%,0%,0%);stroke-opacity:1;stroke-miterlimit:10;" d="M 246.871094 147.929688 L 250.175781 130.050781 "/>
<path style=" stroke:none;fill-rule:nonzero;fill:rgb(100%,100%,100%);fill-opacity:1;" d="M 257.75 145.730469 L 272.75 145.730469 L 272.75 156.730469 L 257.75 156.730469 Z M 257.75 145.730469 "/>
<g style="fill:rgb(100%,0%,0%);fill-opacity:1;">
  <use xlink:href="#glyph0-4" x="257.75" y="154.393555"/>
  <use xlink:href="#glyph0-3" x="265.091797" y="154.393555"/>
</g>
</g>
</svg>

<svg xmlns="http://www.w3.org/2000/svg" xmlns:xlink="http://www.w3.org/1999/xlink" width="300pt" height="300pt" viewBox="0 0 300 300"><defs><symbol overflow="visible"><path d="M.453 1.594v-7.938h4.5v7.938zm.5-.5h3.5v-6.938h-3.5zm0 0"/></symbol><symbol overflow="visible" id="a"><path d="M.89-6.563h3.766v.75h-2.89v1.938h2.61v.734h-2.61V0H.89zm0 0"/></symbol><symbol overflow="visible" id="b"><path d="M.89-6.563H2.08l2.906 5.485v-5.484h.86V0H4.656L1.75-5.484V0H.89zm0 0"/></symbol><symbol overflow="visible" id="c"><path d="M.89-6.563h.876v2.688H5v-2.688h.89V0H5v-3.125H1.766V0H.89zm0 0"/></symbol><symbol overflow="visible" id="d"><path d="M3.547-5.953c-.65 0-1.164.242-1.547.72-.375.48-.563 1.13-.563 1.952 0 .835.188 1.49.563 1.967.383.48.898.72 1.547.72.644 0 1.156-.24 1.53-.72.376-.476.564-1.132.564-1.968 0-.822-.187-1.474-.562-1.954-.375-.477-.887-.72-1.53-.72zm0-.734c.914 0 1.648.312 2.203.937.55.617.828 1.438.828 2.47 0 1.042-.277 1.87-.828 2.483-.555.617-1.29.922-2.203.922-.93 0-1.668-.305-2.22-.922C.774-1.41.5-2.237.5-3.28c0-1.033.273-1.853.828-2.47.55-.625 1.29-.938 2.22-.938zm0 0"/></symbol></defs><g><path fill="#fff" d="M0 0h300v300H0z"/><path d="M43.504 172.875l3.476-8.398" stroke-width="1.2" stroke="#3cc" stroke-miterlimit="10" fill="none"/><path d="M46.98 164.477l3.473-8.403" stroke-width="1.2" stroke="#000" stroke-miterlimit="10" fill="none"/><path d="M37.504 167.375h6v11h-6zm0 0" fill="#fff"/><use xlink:href="#a" x="37.504" y="176.038" fill="#3cc"/><path d="M50.453 156.074L39.38 141.656M52.738 152.027l-8.86-11.535M68.477 153.69l-18.024 2.384M39.38 141.656l6.944-16.8M46.324 124.855l-5.535-7.21" stroke-width="1.2" stroke="#000" stroke-miterlimit="10" fill="none"/><path d="M40.79 117.645l-5.54-7.207" stroke-width="1.2" stroke="#3cc" stroke-miterlimit="10" fill="none"/><path d="M46.324 124.855l18.028-2.382M48.688 128.86l14.42-1.907" stroke-width="1.2" stroke="#000" stroke-miterlimit="10" fill="none"/><path d="M29.25 104.938h6v11h-6zm0 0" fill="#fff"/><use xlink:href="#a" x="29.25" y="113.601" fill="#3cc"/><path d="M64.352 122.473l11.074 14.418M75.426 136.89l-6.95 16.8M70.777 136.938l-5.558 13.437M68.477 153.69l5.54 7.212" stroke-width="1.2" stroke="#000" stroke-miterlimit="10" fill="none"/><path d="M74.016 160.902l5.54 7.207M79.555 168.11l9.01-1.192" stroke-width="1.2" stroke="#00f" stroke-miterlimit="10" fill="none"/><path d="M88.566 166.918l9.012-1.19" stroke-width="1.2" stroke="#000" stroke-miterlimit="10" fill="none"/><path d="M72.555 162.61h14v11h-14zm0 0" fill="#fff"/><g fill="#00f"><use xlink:href="#b" x="72.555" y="171.272"/><use xlink:href="#c" x="79.532" y="171.272"/></g><path d="M97.578 165.727l5.54 7.21" stroke-width="1.2" stroke="#000" stroke-miterlimit="10" fill="none"/><path d="M103.117 172.938l5.54 7.207" stroke-width="1.2" stroke="#00f" stroke-miterlimit="10" fill="none"/><path d="M102.078 164.563l4.43 5.77" stroke-width="1.2" stroke="#000" stroke-miterlimit="10" fill="none"/><path d="M106.508 170.332l4.433 5.766" stroke-width="1.2" stroke="#00f" stroke-miterlimit="10" fill="none"/><path d="M104.527 148.926l-6.95 16.8" stroke-width="1.2" stroke="#000" stroke-miterlimit="10" fill="none"/><path d="M108.656 180.145l9.012-1.192" stroke-width="1.2" stroke="#00f" stroke-miterlimit="10" fill="none"/><path d="M117.668 178.953l9.012-1.19" stroke-width="1.2" stroke="#000" stroke-miterlimit="10" fill="none"/><path d="M105.656 174.645h7v11h-7zm0 0" fill="#fff"/><use xlink:href="#b" x="105.656" y="183.308" fill="#00f"/><path d="M126.68 177.762l6.918 5.902" stroke-width="1.2" stroke="#000" stroke-miterlimit="10" fill="none"/><path d="M133.598 183.664l6.914 5.9" stroke-width="1.2" stroke="#00f" stroke-miterlimit="10" fill="none"/><path d="M130.84 175.688l5.53 4.722" stroke-width="1.2" stroke="#000" stroke-miterlimit="10" fill="none"/><path d="M136.37 180.41l5.536 4.72" stroke-width="1.2" stroke="#00f" stroke-miterlimit="10" fill="none"/><path d="M133.63 160.96l-6.95 16.802" stroke-width="1.2" stroke="#000" stroke-miterlimit="10" fill="none"/><path d="M140.512 189.563l15.496-9.508" stroke-width="1.2" stroke="#00f" stroke-miterlimit="10" fill="none"/><path d="M137.512 184.063h7v11h-7zm0 0" fill="#fff"/><use xlink:href="#b" x="137.512" y="192.726" fill="#00f"/><path d="M156.008 180.055l-2.125-8.84" stroke-width="1.2" stroke="#00f" stroke-miterlimit="10" fill="none"/><path d="M153.883 171.215l-2.13-8.836" stroke-width="1.2" stroke="#000" stroke-miterlimit="10" fill="none"/><path d="M149.008 174.555h14v11h-14zm0 0" fill="#fff"/><g fill="#00f"><use xlink:href="#b" x="149.008" y="183.218"/><use xlink:href="#c" x="155.985" y="183.218"/></g><path d="M151.754 162.38l-18.125-1.42M149.61 166.5l-14.5-1.133M151.754 162.38l11.8-13.833M133.63 160.96l-5.54-7.206" stroke-width="1.2" stroke="#000" stroke-miterlimit="10" fill="none"/><path d="M128.09 153.754l-5.54-7.21M122.55 146.543l-9.01 1.19" stroke-width="1.2" stroke="#00f" stroke-miterlimit="10" fill="none"/><path d="M113.54 147.734l-9.013 1.192" stroke-width="1.2" stroke="#000" stroke-miterlimit="10" fill="none"/><path d="M121.313 151.023l-7.21.954" stroke-width="1.2" stroke="#00f" stroke-miterlimit="10" fill="none"/><path d="M114.102 151.977l-7.21.953" stroke-width="1.2" stroke="#000" stroke-miterlimit="10" fill="none"/><path d="M119.55 141.043h7v11h-7zm0 0" fill="#fff"/><use xlink:href="#b" x="119.551" y="149.706" fill="#00f"/><path d="M163.555 148.547l17.88 3.305M166.12 144.668l14.302 2.644M157.477 131.41l6.078 17.137M181.434 151.852l11.8-13.832M193.234 138.02l-6.078-17.137M188.594 137.734l-4.864-13.707M193.234 138.02l17.88 3.3M187.156 120.883l-17.88-3.305M169.277 117.578l-11.8 13.832M171.352 121.738l-9.442 11.067M157.477 131.41l-8.938-1.652" stroke-width="1.2" stroke="#000" stroke-miterlimit="10" fill="none"/><path d="M148.54 129.758l-8.942-1.653M139.598 128.105l-3.04-8.566" stroke-width="1.2" stroke="#f00" stroke-miterlimit="10" fill="none"/><path d="M136.56 119.54l-3.04-8.567" stroke-width="1.2" stroke="#000" stroke-miterlimit="10" fill="none"/><path d="M135.598 122.605h8v11h-8zm0 0" fill="#fff"/><use xlink:href="#d" x="135.598" y="131.269" fill="#f00"/><path d="M211.113 141.32l17.88 3.305M212.125 145.86l14.3 2.64M213.68 137.445l14.3 2.64M228.992 144.625l17.88 3.305M246.87 147.93l8.942 1.652" stroke-width="1.2" stroke="#000" stroke-miterlimit="10" fill="none"/><path d="M255.813 149.582l8.937 1.648" stroke-width="1.2" stroke="#f00" stroke-miterlimit="10" fill="none"/><path d="M246.87 147.93l-3.304 17.88M246.87 147.93l3.306-17.88" stroke-width="1.2" stroke="#000" stroke-miterlimit="10" fill="none"/><path d="M257.75 145.73h15v11h-15zm0 0" fill="#fff"/><g fill="#f00"><use xlink:href="#d" x="257.75" y="154.394"/><use xlink:href="#c" x="265.092" y="154.394"/></g></g></svg>
